X: 08081
T: MS. McCORMICK'S JIG
C: Bob McQuillen 20 Feb 91
B: Bob's Note Book 8 #81
%R: jig
Z: 2021 John Chambers <jc:trillian.mit.edu>
M: 6/8
L: 1/8
K: A
F \
| EAc BAF | EAA A2c | BcB Ace | aec BAF |\
| EAc BAF | DAA Ace | def ece | aAA A2 :|
|: B \
| c2c Ace | def ecB | c2c Ace | edc BAB |\
| cBc Ace | def ece | fab ecB | cAA A2 :|
%%begintext align
%% Kim McCormick
%% lives over in Marlow, NH, a town celebrated for its cold
%% temperatures, and known as the "Ice Bar of Cheshire County".
%% Kim loves to dance and often comes over to Nelson on Monday
%% nights. I bet she finds someone to play this tune for her, don't you?
%%endtext
%%begintext align
%% The D in bar 6 should maybe be E, but it sure looks like a D.
%% Maybe it's a typo.
%%endtext

%%sep 1 1 500

%%sep 1 1 500

